communes/2513.svg

<?xml version="1.0" encoding="UTF-8" standalone="no"?>
<svg
   xmlns:dc="http://purl.org/dc/elements/1.1/"
   xmlns:cc="http://creativecommons.org/ns#"
   xmlns:rdf="http://www.w3.org/1999/02/22-rdf-syntax-ns#"
   xmlns:svg="http://www.w3.org/2000/svg"
   xmlns="http://www.w3.org/2000/svg"
   xmlns:sodipodi="http://sodipodi.sourceforge.net/DTD/sodipodi-0.dtd"
   xmlns:inkscape="http://www.inkscape.org/namespaces/inkscape"
   version="1.0"
   width="208.86046"
   height="244.65999"
   id="svg2780"
   inkscape:version="0.92.4 (5da689c313, 2019-01-14)"
   sodipodi:docname="2513.svg">
  <metadata
     id="metadata27">
    <rdf:RDF>
      <cc:Work
         rdf:about="">
        <dc:format>image/svg+xml</dc:format>
        <dc:type
           rdf:resource="http://purl.org/dc/dcmitype/StillImage" />
        <dc:title />
      </cc:Work>
    </rdf:RDF>
  </metadata>
  <sodipodi:namedview
     pagecolor="#ffffff"
     bordercolor="#666666"
     borderopacity="1"
     objecttolerance="10"
     gridtolerance="10"
     guidetolerance="10"
     inkscape:pageopacity="0"
     inkscape:pageshadow="2"
     inkscape:window-width="3259"
     inkscape:window-height="1417"
     id="namedview25"
     showgrid="false"
     inkscape:zoom="2.8284271"
     inkscape:cx="104.37597"
     inkscape:cy="71.905437"
     inkscape:window-x="-8"
     inkscape:window-y="-8"
     inkscape:window-maximized="1"
     inkscape:current-layer="svg2780"
     inkscape:measure-start="104.255,149.787"
     inkscape:measure-end="104.255,126.383"
     showguides="true"
     inkscape:object-paths="true"
     inkscape:snap-intersection-paths="true"
     inkscape:snap-global="true"
     inkscape:snap-object-midpoints="true"
     inkscape:document-rotation="0" />
  <defs
     id="defs2782" />
  <path
     inkscape:connector-curvature="0"
     style="fill:#ffffff;fill-opacity:1;fill-rule:evenodd;stroke:#000000;stroke-width:1.99999988;stroke-linecap:butt;stroke-miterlimit:4;stroke-dashoffset:0;stroke-opacity:1"
     id="path4212"
     d="m 1,1 3.761095,158.00304 c 2.686489,112.85918 196.651755,112.85918 199.338255,0 L 207.86045,1 Z" />
  <path
     style="opacity:1;fill:#cc2918;fill-opacity:1;stroke:#000000;stroke-width:1;stroke-miterlimit:22;stroke-dasharray:none;stroke-dashoffset:4.57999992;stroke-opacity:1"
     d="M 3.7967197,118.48978 H 205.06373 L 207.86045,1 H 1.0000014 Z"
     id="path18960"
     inkscape:connector-curvature="0" />
  <path
     inkscape:connector-curvature="0"
     style="fill:none;fill-opacity:1;fill-rule:evenodd;stroke:#000000;stroke-width:1.99999988;stroke-linecap:butt;stroke-miterlimit:4;stroke-dashoffset:0;stroke-opacity:1"
     id="path4212-8"
     d="M 1,0.99999834 4.761095,159.00304 c 2.686489,112.85918 196.651755,112.85918 199.338255,0 l 3.7611,-158.00304166 z" />
  <g
     id="g19154">
    <path
       inkscape:transform-center-y="-47.608805"
       inkscape:transform-center-x="-52.475915"
       sodipodi:nodetypes="cccccc"
       inkscape:connector-curvature="0"
       d="m 117.64586,115.33929 39.33474,-47.125225 39.46612,13.783719 -39.7465,-38.785147 -49.6256,59.453543 z"
       style="opacity:1;fill:#ffffff;fill-opacity:1;stroke:#000000;stroke-width:1;stroke-miterlimit:22;stroke-dasharray:none;stroke-dashoffset:4.57999992;stroke-opacity:1"
       id="path18881-0-4-1-2-7-6-6" />
    <path
       inkscape:transform-center-y="-47.608805"
       inkscape:transform-center-x="-52.475915"
       sodipodi:nodetypes="cccccc"
       inkscape:connector-curvature="0"
       d="M 52.008415,168.61467 14.60702,156.74925 52.288792,193.6161 101.91641,134.16016 91.345169,121.48705 Z"
       style="opacity:1;fill:#cc2918;fill-opacity:1;stroke:#000000;stroke-width:1;stroke-miterlimit:22;stroke-dasharray:none;stroke-dashoffset:4.57999992;stroke-opacity:1"
       id="path18881-0-4-1-2-9-2" />
  </g>
  <g
     id="g19158">
    <path
       inkscape:transform-center-y="-47.608805"
       inkscape:transform-center-x="52.475917"
       sodipodi:nodetypes="ccccccc"
       inkscape:connector-curvature="0"
       d="M 93.859168,118.48977 51.954531,68.278608 12.485557,82.05416 52.24009,43.277238 l 58.1477,69.679832 4.64981,5.5327 z"
       style="opacity:1;fill:#ffffff;fill-opacity:1;stroke:#000000;stroke-width:1;stroke-miterlimit:22;stroke-dasharray:none;stroke-dashoffset:4.57999992;stroke-opacity:1"
       id="path18881-0-4-1" />
    <path
       inkscape:transform-center-y="-47.608805"
       inkscape:transform-center-x="52.475917"
       sodipodi:nodetypes="ccccccc"
       inkscape:connector-curvature="0"
       d="m 156.90594,168.70093 37.40385,-11.85768 -37.6894,36.85905 -58.1477,-69.67982 -4.613522,-5.53271 h 21.160002 z"
       style="opacity:1;fill:#cc2918;fill-opacity:1;stroke:#000000;stroke-width:1;stroke-miterlimit:22;stroke-dasharray:none;stroke-dashoffset:4.57999992;stroke-opacity:1"
       id="path18881-0-4-1-8" />
  </g>
</svg>

<?xml version="1.0" encoding="UTF-8"?>
<svg version="1.0" viewBox="0 0 208.86 244.66" xmlns="http://www.w3.org/2000/svg" xmlns:cc="http://creativecommons.org/ns#" xmlns:dc="http://purl.org/dc/elements/1.1/" xmlns:rdf="http://www.w3.org/1999/02/22-rdf-syntax-ns#">
<metadata>
<rdf:RDF>
<cc:Work rdf:about="">
<dc:format>image/svg+xml</dc:format>
<dc:type rdf:resource="http://purl.org/dc/dcmitype/StillImage"/>
<dc:title/>
</cc:Work>
</rdf:RDF>
</metadata>
<path d="m1 1 3.7611 158c2.6865 112.86 196.65 112.86 199.34 0l3.7611-158z" fill="#fff" fill-rule="evenodd" stroke="#000" stroke-width="2"/>
<path d="m3.7967 118.49h201.27l2.7967-117.49h-206.86z" fill="#cc2918" stroke="#000" stroke-dashoffset="4.58" stroke-miterlimit="22"/>
<path d="m1 1 3.7611 158c2.6865 112.86 196.65 112.86 199.34 0l3.7611-158z" fill="none" stroke="#000" stroke-width="2"/>
<g stroke="#000" stroke-dashoffset="4.58" stroke-miterlimit="22">
<path d="m117.65 115.34 39.335-47.125 39.466 13.784-39.746-38.785-49.626 59.454z" fill="#fff"/>
<path d="m52.008 168.61-37.401-11.865 37.682 36.867 49.628-59.456-10.571-12.673z" fill="#cc2918"/>
</g>
<g stroke="#000" stroke-dashoffset="4.58" stroke-miterlimit="22">
<path d="m93.859 118.49-41.905-50.211-39.469 13.776 39.755-38.777 58.148 69.68 4.6498 5.5327z" fill="#fff"/>
<path d="m156.91 168.7 37.404-11.858-37.689 36.859-58.148-69.68-4.6135-5.5327h21.16z" fill="#cc2918"/>
</g>
</svg>
